www/assets/icons/lock_open.svg

<svg xmlns="http://www.w3.org/2000/svg" width="24" height="24" viewBox="0 0 24 24" fill='currentColor'><path d="M12 17.5c1.1 0 2-.9 2-2s-.9-2-2-2-2 .9-2 2 .9 2 2 2m6-9h-1v-2c0-2.76-2.24-5-5-5s-5 2.24-5 5h1.9c0-1.71 1.39-3.1 3.1-3.1s3.1 1.39 3.1 3.1v2H6c-1.1 0-2 .9-2 2v10c0 1.1.9 2 2 2h12c1.1 0 2-.9 2-2v-10c0-1.1-.9-2-2-2m0 12H6v-10h12z"/></svg>

<svg width="24" height="24" viewBox="0 0 24 24" xmlns="http://www.w3.org/2000/svg" fill='currentColor'><path d="M12 17.5C13.1 17.5 14 16.6 14 15.5C14 14.4 13.1 13.5 12 13.5C10.9 13.5 10 14.4 10 15.5C10 16.6 10.9 17.5 12 17.5ZM18 8.5H17V6.5C17 3.74 14.76 1.5 12 1.5C9.24 1.5 7 3.74 7 6.5H8.9C8.9 4.79 10.29 3.4 12 3.4C13.71 3.4 15.1 4.79 15.1 6.5V8.5H6C4.9 8.5 4 9.4 4 10.5V20.5C4 21.6 4.9 22.5 6 22.5H18C19.1 22.5 20 21.6 20 20.5V10.5C20 9.4 19.1 8.5 18 8.5ZM18 20.5H6V10.5H18V20.5Z"/></svg>
